X: 1
T: The Helston Furry Dance
O: Helston Town Band
M: C|
L: 1/8
Z: 2006 John Chambers <jc@trillian.mit.edu>
S: http://www.youtube.com/watchv=INtcTlNQ6e0 (2006 video in Helston)
K: Eb
     B,2 | "Eb"E3 F G3 A | "Eb"B2B2 "Bb7"B2cd | "Eb"e2B2 "Bb7"BcBA | "Eb"G3 F E2 :|
|: (3EFG | "Ab"A2c2 c2BA | "Eb"GABc "Bb7"BBcd | "Eb"e2B2 "Bb7"BcBA | "Eb"G3 F E2 :|
%%sep 1 1 500
